Papirus/48x48/apps/godot.svg

<svg xmlns="http://www.w3.org/2000/svg" width="48" height="48" version="1">
 <g>
  <path style="fill-opacity:0.2" d="M 19,41 C 7.3222473,39.486388 7,33.5 7,33.5 V 18.999999 L 4,16 l 3.9999993,-5.000001 3.9999997,2 3,-2 -0.356851,-4 L 19.999998,5 l 2,4 h 3.999999 l 2,-4 5.356846,1.999999 L 33,11 l 2.999996,1.999999 4,-2 L 44,16 41,18.999999 V 33.5 c 0,0 -0.225801,7.329178 -12,7.5 z"/>
  <path style="fill:#3888c3" d="M 19,40 C 7.3222473,38.486388 7,32.5 7,32.5 V 17.999999 L 4,15 7.9999993,9.9999994 l 3.9999997,1.9999996 3,-1.9999996 -0.356851,-4 5.35685,-1.999999 2,3.9999992 h 3.999999 l 2,-3.9999992 5.356846,1.999999 L 33,10 l 2.999996,1.999999 4,-1.9999996 L 44,15 41,17.999999 V 32.5 c 0,0 -0.225801,7.329178 -12,7.5 z"/>
  <circle style="fill-opacity:0.2" cx="34" cy="23" r="4"/>
  <circle style="fill:#ffffff" cx="34" cy="22" r="4"/>
  <circle style="fill-opacity:0.2" cx="14" cy="23" r="4"/>
  <circle style="fill:#ffffff" cx="14" cy="22" r="4"/>
  <circle style="fill:#353535" cx="14" cy="22" r="3"/>
  <circle style="fill:#353535" cx="34" cy="22" r="3"/>
  <path style="fill:none;stroke:#000000;stroke-width:4;stroke-linecap:round;stroke-opacity:0.2" d="m 23.999998,22.999998 v 4"/>
  <path style="fill:none;stroke:#ffffff;stroke-width:4;stroke-linecap:round" d="m 23.999998,21.999998 v 4"/>
  <path style="fill:#ffffff;fill-opacity:0.2" d="M 14.643999,5.9999998 19.999998,4 l 2,3.9999996 h 4 v 0.9999999 h -4 l -2,-3.9999996 -5.33485,1.9999998 z"/>
  <path style="fill:#ffffff;fill-opacity:0.2" d="M 33.356491,5.9999998 27.999998,4 l -2,3.9999996 v 0.9999999 l 2.034494,-3.9999996 5.300849,1.9999998 z"/>
  <path style="fill:#ffffff;fill-opacity:0.2" d="m 4,15 3.9999997,-5.0000006 3.9999993,1.9999996 3,-1.9999996 v 0.9999996 l -3,2 -3.9999993,-2 -3.559568,4.449461 z"/>
  <path style="fill:#ffffff;fill-opacity:0.2" d="m 43.999995,15 -4,-5.000001 -3.999999,2 -3,-2 v 1 l 3,2 3.999999,-2 3.559568,4.449461 z"/>
  <path style="opacity:0.2;fill:none;stroke:#000000;stroke-width:2;stroke-linejoin:round" d="m 41,32 h -6 v 3 H 28 V 32 H 24 M 7.0000003,32 H 13 v 3 h 7 v -3 h 4"/>
  <path style="fill:none;stroke:#ffffff;stroke-width:2;stroke-linejoin:round" d="m 41,31 h -6 v 3 H 28 V 31 H 24 M 7.0000003,31 H 13 v 3 h 7 v -3 h 4"/>
 </g>
</svg>

<svg xmlns="http://www.w3.org/2000/svg" width="48" height="48" version="1">
 <g transform="translate(0,2)">
  <path style="opacity:0.2" d="M 19,41 C 7.3222,39.486 7,33.5 7,33.5 V 19 L 4,16 8,11 12,13 15,11 14.643,7 20,5 22,9 H 26 L 28,5 33.357,7 33,11 36,13 40,11 44,16 41,19 V 33.5 C 41,33.5 40.774,40.829 29,41 Z"/>
  <path style="fill:#3888c3" d="M 19,40 C 7.3222,38.486 7,32.5 7,32.5 V 18 L 4,15 8,10 12,12 15,10 14.643,6 20,4 22,8 H 26 L 28,4 33.357,6 33,10 36,12 40,10 44,15 41,18 V 32.5 C 41,32.5 40.774,39.829 29,40 Z"/>
  <circle style="opacity:0.2" cx="34" cy="23" r="4"/>
  <circle style="fill:#ffffff" cx="34" cy="22" r="4"/>
  <circle style="opacity:0.2" cx="14" cy="23" r="4"/>
  <circle style="fill:#ffffff" cx="14" cy="22" r="4"/>
  <circle style="fill:#353535" cx="14" cy="22" r="3"/>
  <circle style="fill:#353535" cx="34" cy="22" r="3"/>
  <path style="fill:none;stroke:#000000;stroke-width:4;stroke-linecap:round;stroke-opacity:0.2" d="M 24,23 V 27"/>
  <path style="fill:none;stroke:#ffffff;stroke-width:4;stroke-linecap:round" d="M 24,22 V 26"/>
  <path style="opacity:0.2;fill:#ffffff" d="M 14.644,6 20,4 22,8 H 26 V 9 H 22 L 20,5 14.665,7 Z"/>
  <path style="opacity:0.2;fill:#ffffff" d="M 33.356,6 28,4 26,8 V 9 L 28.034,5 33.335,7 Z"/>
  <path style="opacity:0.2;fill:#ffffff" d="M 4,15 8,10 12,12 15,10 V 11 L 12,13 8,11 4.4404,15.449 Z"/>
  <path style="opacity:0.2;fill:#ffffff" d="M 44,15 40,10 36,12 33,10 V 11 L 36,13 40,11 43.56,15.449 Z"/>
  <path style="opacity:0.2;fill:none;stroke:#000000;stroke-width:2;stroke-linejoin:round" d="M 41,32 H 35 V 35 H 28 V 32 H 24 M 7,32 H 13 V 35 H 20 V 32 H 24"/>
  <path style="fill:none;stroke:#ffffff;stroke-width:2;stroke-linejoin:round" d="M 41,31 H 35 V 34 H 28 V 31 H 24 M 7,31 H 13 V 34 H 20 V 31 H 24"/>
 </g>
</svg>
